X: 11
I: linebreak $
T: Chiaranzana
M: 6/4
L: 1/8
K: A minor
"F"A4A2 B2c2d2 | "C"e2d2c2 g2f2e2 | "Dm"f2e2d2 f2e2d2 | "A"^c2B2A2 G2F2E2 | "F"F2G2A2 B2c2d2 | "C"e2g2f2 e2d2c2 | 
"G"B2f2e2 d2"A"d2^c2 | "D"d2e2f2 e2d2c2 | "G"B2GABc d2"A"d2^c2 | "D"d4d2 e2d2c2 | "G"B2GABc d2"A"d2^c2 | "D"d8d4 :: 
M: 3/4
"F"f4f2 | "F"f3ed2 | "C"e3dc2 | "C"g2f2e2 | "Dm"f3ed2 | "Dm"f3ed2 | 
"A"^c3BA2 | "A"G2F2E2 | "F"F3GA2 | "G"B3cd2 | "C"e3dc2 | "C"e2d2c2 | 
"G"B3ed2- | "A"d2d2^c2 | "D"d3e^f2 | "D"e2d2c2 | "G"B3ed2- | "A"d2d2^c2 | 
"D"d6 | "D"e2d2c2 | "G"B3ed2- | "A"d2d2^c2 | "D"d4d2 | "D"d6 :| 


